!!!COM: Giovannelli, Ruggero
!!!CDT: ~1560///-1625/01/07/
!!!OTL: Deus noster fidelis
!!!OTL2: Filli cara et amata
!!!ONM: No. 2
!!!SMS: Musica tolta da i madrigali di Claudio Monteverdi, e d'altri autori, e fatta spirituale
!!!PPR: A. Coppini, ed.
!!!PPP: Milan
!!!PDT: 1607
!!!URL: http://www.jpj.dk/coppini.htm
!!!AIN: contrafacta
**kern	**kern	**kern	**kern	**kern
*staff5	*staff4	*staff3	*staff2	*staff1
*Ivox	*Ivox	*Ivox	*Ivox	*Ivox
!basso	!tenore	!alto	!quinto	!canto
*clefF4	*clefGv2	*clefG2	*clefG2	*clefG2
*k[]	*k[]	*k[]	*k[]	*k[]
*M4/4	*M4/4	*M4/4	*M4/4	*M4/4
*MM120	*MM120	*MM120	*MM120	*MM120
=1-	=1-	=1-	=1-	=1-
1r	1d	1f#	1a	1dd
=2	=2	=2	=2	=2
1r	1d	1f#	1a	1dd
=3	=3	=3	=3	=3
1r	4d\	4f#/	4a/	4dd\
.	4d\	4f#/	4a/	4dd\
.	2d\	2f#/	2a/	2dd\
=4	=4	=4	=4	=4
1r	4A/	4a/	4cc\	4ee\
.	4d\	4a/	4dd\	4ff#\
.	2G/	2b\	2dd\	2gg\
=5	=5	=5	=5	=5
1r	2G/	2b\	2dd\	2gg\
.	4c\	4cc\	4ee\	4gg\
.	8c\	8cc\	8ee\	8gg\
.	8c\	8cc\	8ee\	8gg\
=6	=6	=6	=6	=6
1r	4c\	4cc\	4ee\	4gg\
.	4d\	4a/	4dd\	4ff\
.	2e\	2g#/	2b\	2ee\
=7	=7	=7	=7	=7
1r	4e\	4g#/	4b/	4ee/
.	4e\	4g#/	4b/	4ee/
.	4A/	4a/	4cc#\	4ee\
.	8A/	8a/	8cc#\	8ee\
.	8A/	8a/	8cc#\	8ee\
=8	=8	=8	=8	=8
1r	4A/	4a/	4cc#\	4ee\
.	8d/	8a/	8dd\	8ff\
.	8d/	8a/	8dd\	8ff\
.	4c/	4cc\	4ee\	4gg\
.	4B/	4g/	4dd\	4gg\
=9	=9	=9	=9	=9
1r	4A/	4a/	4cc\	4ff\
.	4c\	4g/	4cc\	4ee\
.	2G/	2g/	2b\	2dd\
=10	=10	=10	=10	=10
1r	1c	1g	1cc	1ee
=11	=11	=11	=11	=11
1G	1d	1g	1b	1dd
=12	=12	=12	=12	=12
1G	1d	1g	1b	1dd
=13	=13	=13	=13	=13
4G\	4d\	4g/	4b\	4dd\
4G\	4d\	4g/	4b\	4dd\
2G\	2d\	2g/	2b\	2dd\
=14	=14	=14	=14	=14
4D\	4d\	4f#/	4a/	4dd\
4G\	4d\	4g/	4b\	4dd\
2C/	2c\	2g/	2cc\	2ee\
=15	=15	=15	=15	=15
1C	1c	1g	1cc	1ee
=16	=16	=16	=16	=16
4F\	4c\	4a/	4cc\	1r
8F\	8c\	8a/	8cc\	.
8F\	8c\	8a/	8cc\	.
4F\	4f\	4a/	4cc\	.
4G\	4d\	4g/	4b-\	.
=17	=17	=17	=17	=17
2A\	2c#\	2e/	2a/	1r
2A\	2c#\	2e/	2a/	.
=18	=18	=18	=18	=18
4A\	4e\	4a/	4cc\	4ee\
8A\	8e\	8a/	8cc\	8ee\
8A\	8e\	8a/	8cc\	8ee\
4A\	4c\	4a/	4cc\	4ee\
4G\	4B\	4b\	4dd\	4gg\
=19	=19	=19	=19	=19
2.c\	2.e\	2.cc\	2.ee\	2.gg\
4c\	4e\	4cc\	4ee\	4gg\
=20	=20	=20	=20	=20
4c\	4e\	4g/	4ee\	4gg\
8c\	8e\	8g/	8ee\	8gg\
8c\	8e\	8g/	8ee\	8gg\
4c\	4e\	4g/	4ee\	4gg\
8c\	8e\	8g/	8cc\	8ee\
8c\	8e\	8g/	8cc\	8ee\
=21	=21	=21	=21	=21
4A\	4c\	4a/	4cc\	4ee\
4E\	4B\	4g/	4ee\	4gg\
4F\	4A/	4a/	4cc\	4ff\
4G\	4d\	4g/	4b\	4dd\
=22	=22	=22	=22	=22
1D	1d	4.f#/	1a	1dd
.	.	8e/	.	.
.	.	2f#/	.	.
=23	=23	=23	=23	=23
1G	1d	[1g	1b	1dd
=24	=24	=24	=24	=24
1r	1c	1g]	1cc	1ee
=25	=25	=25	=25	=25
[1c	1r	1cc	4ee\	4gg\
.	.	.	8cc\	8ee\
.	.	.	8dd\	8ff\
.	.	.	4ee\	4gg\
.	.	.	4ff\	4aa\
=26	=26	=26	=26	=26
1c]	4e\	4g/	4ee\	4gg\
.	8c\	8e/	4ee\	4gg\
.	8d\	8f/	.	.
.	4e\	4g/	2r	2r
.	4f\	4a/	.	.
=27	=27	=27	=27	=27
4e\	4c\	2.g/	4gg\	1cc
8c\	4c\	.	8ee\	.
8d\	.	.	8ff\	.
4e\	2r	.	4gg\	.
4f\	.	4f/	4aa\	.
=28	=28	=28	=28	=28
2c\	2r	2e/	2gg\	2cc\
2c\	2c\	2e/	2gg\	2cc\
=29	=29	=29	=29	=29
1F	2c\	2r	1r	[1a
.	2c\	2f/	.	.
=30	=30	=30	=30	=30
2F\	1A	2f/	1r	1a]
2F\	.	2f/	.	.
=31	=31	=31	=31	=31
[1D	1A	[1f	1r	[1a
=32	=32	=32	=32	=32
2D\]	1d	2f/]	1r	1a]
2D\	.	2f/	.	.
=33	=33	=33	=33	=33
1E	1B	1e	1r	1g#
=34	=34	=34	=34	=34
1E	1B	1e	1r	2g#/
.	.	.	.	2r
=35	=35	=35	=35	=35
1A	1r	1r	4a/	4cc\
.	.	.	4b\	4dd\
.	.	.	4cc\	4ee\
.	.	.	4a/	4cc\
=36	=36	=36	=36	=36
1G	4B\	4g/	2b\	2dd\
.	4c\	4g/	.	.
.	4d\	4g/	4b\	4dd\
.	4B\	4e/	4g/	4ee\
=37	=37	=37	=37	=37
1F	2c\	2a/	2a/	2ff\
.	4c\	4f/	2a/	2ff\
.	4d\	4a/	.	.
=38	=38	=38	=38	=38
1E	2e\	2g/	4ee\	4gg\
.	.	.	4dd\	4ff\
.	2e\	2g/	4cc\	4ee\
.	.	.	4b\	4gg\
=39	=39	=39	=39	=39
1D	4A/	4a/	2dd\	2ff\
.	4A/	4a/	.	.
.	4A/	4f/	4dd\	4ff\
.	4B\	4d/	4dd\	4ff\
=40	=40	=40	=40	=40
1C	2c\	2e/	2g/	2ee\
.	4e\	4g/	2g/	2ee\
.	4d\	4f/	.	.
=41	=41	=41	=41	=41
1C	4c\	2e/	4cc\	4ee\
.	4d\	.	4b\	4dd\
.	2e\	2e/	4a/	4cc\
.	.	.	4g/	4ee\
=42	=42	=42	=42	=42
[1D	2A/	4a/	4f#/	2dd\
.	.	4a/	4f#/	.
.	2B\	[2g/	2g/	4dd\
.	.	.	.	4dd\
=43	=43	=43	=43	=43
1D]	1A	4g/]	1a	1dd
.	.	8f#/L	.	.
.	.	8e/J	.	.
.	.	2f#/	.	.
=44	=44	=44	=44	=44
1G	1G	1g	1b	2dd\
.	.	.	.	4gg\
.	.	.	.	8gg\
.	.	.	.	8gg\
=45	=45	=45	=45	=45
1r	4c\	4g/	4ee\	2.gg\
.	8c\	8g/	8ee\	.
.	8c\	8g/	8ee\	.
.	4c\	4cc\	4ee\	.
.	4d\	4a/	4dd\	4ff\
=46	=46	=46	=46	=46
1r	2e\	2g#/	2b\	2ee\
.	2e\	2g#/	2b\	2ee\
=47	=47	=47	=47	=47
1r	4r	4r	4r	4r
.	4A/	4a/	4cc#\	4ee\
.	4A/	4a/	4cc#\	4ee\
.	4d\	4a/	4dd\	4ff\
=48	=48	=48	=48	=48
1r	8c\	8cc\	8ee\	8gg\
.	8B\	8dd\	8dd\	8gg\
.	8c\	8cc\	8ee\	8gg\
.	8d\	8a/	8dd\	8ff\
.	4e\	4g#/	4b\	4ee\
.	4f\	4a/	4a/	4dd\
=49	=49	=49	=49	=49
1r	1e	4a/	1b	1ee
.	.	8g#/L	.	.
.	.	8f#/J	.	.
.	.	2g#/	.	.
=50	=50	=50	=50	=50
2r	2A/	2a/	2cc\	2ee\
4F\	4c\	4a/	4cc\	2r
8F\	8c\	8a/	8cc\	.
8F\	8c\	8a/	8cc\	.
=51	=51	=51	=51	=51
2.F\	2.f\	2.a/	2.cc\	1r
4G\	4d\	4g/	4b-\	.
=52	=52	=52	=52	=52
2A\	2c#\	2e/	2a/	1r
2A\	2c#\	2e/	2a/	.
=53	=53	=53	=53	=53
4r	4r	4r	4r	1r
4D\	4d\	4f/	4a/	.
4D\	4d\	4f/	4a/	.
4G\	4d\	4g/	4b\	.
=54	=54	=54	=54	=54
8F\	8f\	8a/	8cc\	1r
8E\	8g\	8g/	8cc\	.
8F\	8f\	8a/	8cc\	.
8G\	8d\	8g/	8b\	.
4A\	4c\	4e/	4a/	.
4B-\	4d\	4d/	4g/	.
=55	=55	=55	=55	=55
1A	4d\	1e	1a	1r
.	8c#\L	.	.	.
.	8B\J	.	.	.
.	2c#\	.	.	.
=56	=56	=56	=56	=56
1D	2d\	2f#/	2a/	2r
.	4d\	4fn/	4a/	4dd\
.	8d\	8f/	8a/	8dd\
.	8d\	8f/	8a/	8dd\
=57	=57	=57	=57	=57
1r	4d\	4f/	4a/	4dd\
.	4c\	4g/	4cc\	4ee\
.	2f\	2a/	2cc\	2ff\
=58	=58	=58	=58	=58
1r	2f\	2a/	2cc\	2ff\
.	4r	4r	4r	4r
.	4d\	4f/	4dd\	4a/
=59	=59	=59	=59	=59
1r	4d\	4f/	4dd\	4a/
.	4g\	4g/	4dd\	4b\
.	8f\	8a/	8ff\	8cc\
.	8e\	8g/	8gg\	8cc\
.	8f\	8f/	8aa\	8cc\
.	8g\	8e/	8gg\	8cc\
=60	=60	=60	=60	=60
1r	4a\	4d/	4ff\	4dd\
.	4d\	4a/	4ff\	4dd\
.	2e\	2g#/	2ee\	2b\
=61	=61	=61	=61	=61
4r	2A/	4a/	4ee\	4cc#\
4A\	.	4a/	4cc\	4ee\
4A\	2r	4a/	4cc\	4ee\
4d\	.	4a/	4dd\	4ff\
=62	=62	=62	=62	=62
8c\	1r	8cc\	8ee\	8gg\
8B\	.	8dd\	8dd\	8gg\
8c\	.	8cc\	8ee\	8gg\
8d\	.	8a/	8dd\	8ff\
4e\	.	4g#/	4b\	4ee\
4f\	.	4a/	4a/	4dd\
=63	=63	=63	=63	=63
1e	1r	4a/	1b	1ee
.	.	8g#/L	.	.
.	.	8f#/J	.	.
.	.	2g#/	.	.
=64	=64	=64	=64	=64
2A\	2r	2a/	2cc#\	2ee\
4D\	4d\	4a/	4dd\	4ff\
8D\	8d\	8a/	8dd\	8ff\
8D\	8d\	8a/	8dd\	8ff\
=65	=65	=65	=65	=65
4D\	4f\	4a/	4dd\	4ff\
4C/	4g\	4cc\	4ee\	4ee\
2F\	2c\	2a/	2ff\	2cc\
=66	=66	=66	=66	=66
2F\	2c\	2a/	2ff\	2cc\
4r	4r	4r	2r	4r
4D\	4d\	4f/	.	4dd\
=67	=67	=67	=67	=67
4D\	4d\	4f/	1r	4a/
4G\	4d\	4g/	.	4b\
8F\	8f\	8a/	.	8cc\
8E\	8g\	8g/	.	8cc\
8F\	8f\	8a/	.	8cc\
8G\	8d\	8g/	.	8b\
=68	=68	=68	=68	=68
2A\	4c#\	4f/	2r	2a/
.	4c#\	4e/	.	.
2B-\	4d\	4d/	4r	2g/
.	4d\	4G/	4dd\	.
=69	=69	=69	=69	=69
[1A	4r	4r	8cc\	2a/
.	.	.	8b\	.
.	4e\	4c/	8a/	.
.	.	.	8b\	.
.	4e\	4c/	4cc\	2a/
.	4f\	4d/	4a/	.
=70	=70	=70	=70	=70
1A_	8e\	8c/	[1a	4r
.	8d\	8B/	.	.
.	8c\	8A/	.	4cc\
.	8d\	8B/	.	.
.	4e\	4c/	.	8cc\
.	.	.	.	8b\
.	4f\	4d/	.	8a/
.	.	.	.	8b\
=71	=71	=71	=71	=71
1A]	1e	4e/	1a]	4cc#\
.	.	4A/	.	2dd\
.	.	2a/	.	.
.	.	.	.	4cc#\
=72	=72	=72	=72	=72
1D;	1d;	1f#;	1a;	1dd;
==	==	==	==	==
*-	*-	*-	*-	*-
!!!ENC: Craig Stuart Sapp
!!!END: 2004/12/10/
